X:1
T:Canaan
%%score { 1 | 2 }
L:1/8
M:4/4
K:G
V:1 treble 
V:2 bass 
V:1
 D2 | G3 G G2 A2 | B3 c B2 c2 | (e<d) (c<B) (e<c) (B<A) | B4 z2 B2 | A3 G F2 A2 | d3 A A2 z B | %7
 (B<A) (G<F) (A<G) (F<E) | (3(dfe (3dcB A2) G2 | F2 d2 (f<e) (d<c) | d6 d2 | d2 (cB) c2 c2 | %12
 c2 (BA) B2 z B | A2 G2 c2 B2 | (B2 A2) z2 D2 | G3 A G2 A2 | B3 c B2 c2 | (e<d) (c<B) (d<c) (B<A) | %18
 (g2 gf/e/ dc/d/e)(d/c/) | (BA/B/c)(B/A/) G2 F2 | G6 |] %21
V:2
 z2 | G,4 z2 D,2 | G,3 A, G,2 A,2 | B,2 G,2 A,2 D,2 | z G,B,D G,2 z2 | F,2 A,2 D2 ^C2 | %6
 B,4 F,2 z G, | F,2 D,2 E,2 A,,2 | D,2 E,2 F,2 E,2 | D,2 F,2 G,2 A,2 | z D,D,D, D,2 z2 | E,4 A,4 | %12
 D,4 G,2 G,2 | C2 B,2 A,2 G,2 | z D,D,D, D,2 z2 | G,4 z2 D,2 | G,3 A, G,2 A,2 | B,2 G,2 A,2 D,2 | %18
 G,2 A,2 B,2 C2 | G,2 C2 D2 D,2 | G,,6 |] %21

